images/3233736.svg

<?xml version="1.0" encoding="UTF-8"?>
<svg xmlns="http://www.w3.org/2000/svg" xmlns:xlink="http://www.w3.org/1999/xlink" width="300pt" height="300pt" viewBox="0 0 300 300" version="1.1">
<defs>
<g>
<symbol overflow="visible" id="glyph0-0">
<path style="stroke:none;" d="M 0.75 2.65625 L 0.75 -10.578125 L 8.25 -10.578125 L 8.25 2.65625 Z M 1.59375 1.8125 L 7.40625 1.8125 L 7.40625 -9.734375 L 1.59375 -9.734375 Z M 1.59375 1.8125 "/>
</symbol>
<symbol overflow="visible" id="glyph0-1">
<path style="stroke:none;" d="M 1.46875 -10.9375 L 3.46875 -10.9375 L 8.3125 -1.78125 L 8.3125 -10.9375 L 9.75 -10.9375 L 9.75 0 L 7.75 0 L 2.90625 -9.140625 L 2.90625 0 L 1.46875 0 Z M 1.46875 -10.9375 "/>
</symbol>
<symbol overflow="visible" id="glyph0-2">
<path style="stroke:none;" d="M 1.46875 -10.9375 L 7.75 -10.9375 L 7.75 -9.6875 L 2.953125 -9.6875 L 2.953125 -6.46875 L 7.28125 -6.46875 L 7.28125 -5.21875 L 2.953125 -5.21875 L 2.953125 0 L 1.46875 0 Z M 1.46875 -10.9375 "/>
</symbol>
</g>
</defs>
<g id="surface50949">
<rect x="0" y="0" width="300" height="300" style="fill:rgb(100%,100%,100%);fill-opacity:1;stroke:none;"/>
<path style="fill:none;stroke-width:1.2;stroke-linecap:butt;stroke-linejoin:miter;stroke:rgb(0%,0%,0%);stroke-opacity:1;stroke-miterlimit:10;" d="M 35.25 212.492188 L 51.363281 204.273438 "/>
<path style="fill:none;stroke-width:1.2;stroke-linecap:butt;stroke-linejoin:miter;stroke:rgb(0%,0%,100%);stroke-opacity:1;stroke-miterlimit:10;" d="M 51.363281 204.273438 L 67.476562 196.054688 "/>
<path style="fill:none;stroke-width:1.2;stroke-linecap:butt;stroke-linejoin:miter;stroke:rgb(0%,0%,100%);stroke-opacity:1;stroke-miterlimit:10;" d="M 67.476562 196.054688 L 82.652344 205.898438 "/>
<path style="fill:none;stroke-width:1.2;stroke-linecap:butt;stroke-linejoin:miter;stroke:rgb(0%,0%,0%);stroke-opacity:1;stroke-miterlimit:10;" d="M 82.652344 205.898438 L 97.828125 215.746094 "/>
<path style="fill:none;stroke-width:1.2;stroke-linecap:butt;stroke-linejoin:miter;stroke:rgb(0%,0%,100%);stroke-opacity:1;stroke-miterlimit:10;" d="M 67.476562 196.054688 L 68.417969 177.988281 "/>
<path style="fill:none;stroke-width:1.2;stroke-linecap:butt;stroke-linejoin:miter;stroke:rgb(0%,0%,0%);stroke-opacity:1;stroke-miterlimit:10;" d="M 68.417969 177.988281 L 69.359375 159.925781 "/>
<path style=" stroke:none;fill-rule:nonzero;fill:rgb(100%,100%,100%);fill-opacity:1;" d="M 62.476562 187.054688 L 73.476562 187.054688 L 73.476562 205.054688 L 62.476562 205.054688 Z M 62.476562 187.054688 "/>
<g style="fill:rgb(0%,0%,100%);fill-opacity:1;">
  <use xlink:href="#glyph0-1" x="62.476562" y="200.668945"/>
</g>
<path style="fill:none;stroke-width:1.2;stroke-linecap:butt;stroke-linejoin:miter;stroke:rgb(0%,0%,0%);stroke-opacity:1;stroke-miterlimit:10;" d="M 69.359375 159.925781 L 54.183594 150.078125 "/>
<path style="fill:none;stroke-width:1.2;stroke-linecap:butt;stroke-linejoin:miter;stroke:rgb(0%,0%,100%);stroke-opacity:1;stroke-miterlimit:10;" d="M 54.183594 150.078125 L 39.007812 140.234375 "/>
<path style="fill:none;stroke-width:1.2;stroke-linecap:butt;stroke-linejoin:miter;stroke:rgb(0%,0%,0%);stroke-opacity:1;stroke-miterlimit:10;" d="M 70.957031 150.816406 L 58.816406 142.9375 "/>
<path style="fill:none;stroke-width:1.2;stroke-linecap:butt;stroke-linejoin:miter;stroke:rgb(0%,0%,100%);stroke-opacity:1;stroke-miterlimit:10;" d="M 58.816406 142.9375 L 46.679688 135.0625 "/>
<path style="fill:none;stroke-width:1.2;stroke-linecap:butt;stroke-linejoin:miter;stroke:rgb(0%,0%,0%);stroke-opacity:1;stroke-miterlimit:10;" d="M 101.585938 143.488281 L 69.359375 159.925781 "/>
<path style="fill:none;stroke-width:1.2;stroke-linecap:butt;stroke-linejoin:miter;stroke:rgb(0%,0%,100%);stroke-opacity:1;stroke-miterlimit:10;" d="M 39.007812 140.234375 L 39.949219 122.167969 "/>
<path style="fill:none;stroke-width:1.2;stroke-linecap:butt;stroke-linejoin:miter;stroke:rgb(0%,0%,0%);stroke-opacity:1;stroke-miterlimit:10;" d="M 39.949219 122.167969 L 40.890625 104.105469 "/>
<path style=" stroke:none;fill-rule:nonzero;fill:rgb(100%,100%,100%);fill-opacity:1;" d="M 34.007812 131.234375 L 45.007812 131.234375 L 45.007812 149.234375 L 34.007812 149.234375 Z M 34.007812 131.234375 "/>
<g style="fill:rgb(0%,0%,100%);fill-opacity:1;">
  <use xlink:href="#glyph0-1" x="34.007812" y="144.848633"/>
</g>
<path style="fill:none;stroke-width:1.2;stroke-linecap:butt;stroke-linejoin:miter;stroke:rgb(0%,0%,0%);stroke-opacity:1;stroke-miterlimit:10;" d="M 40.890625 104.105469 L 57.003906 95.886719 "/>
<path style="fill:none;stroke-width:1.2;stroke-linecap:butt;stroke-linejoin:miter;stroke:rgb(0%,0%,100%);stroke-opacity:1;stroke-miterlimit:10;" d="M 57.003906 95.886719 L 73.117188 87.667969 "/>
<path style="fill:none;stroke-width:1.2;stroke-linecap:butt;stroke-linejoin:miter;stroke:rgb(0%,0%,0%);stroke-opacity:1;stroke-miterlimit:10;" d="M 47.980469 110.042969 L 60.871094 103.46875 "/>
<path style="fill:none;stroke-width:1.2;stroke-linecap:butt;stroke-linejoin:miter;stroke:rgb(0%,0%,100%);stroke-opacity:1;stroke-miterlimit:10;" d="M 60.871094 103.46875 L 73.761719 96.894531 "/>
<path style="fill:none;stroke-width:1.2;stroke-linecap:butt;stroke-linejoin:miter;stroke:rgb(0%,0%,100%);stroke-opacity:1;stroke-miterlimit:10;" d="M 73.117188 87.667969 L 88.292969 97.511719 "/>
<path style="fill:none;stroke-width:1.2;stroke-linecap:butt;stroke-linejoin:miter;stroke:rgb(0%,0%,0%);stroke-opacity:1;stroke-miterlimit:10;" d="M 88.292969 97.511719 L 103.464844 107.359375 "/>
<path style=" stroke:none;fill-rule:nonzero;fill:rgb(100%,100%,100%);fill-opacity:1;" d="M 68.117188 78.667969 L 79.117188 78.667969 L 79.117188 96.667969 L 68.117188 96.667969 Z M 68.117188 78.667969 "/>
<g style="fill:rgb(0%,0%,100%);fill-opacity:1;">
  <use xlink:href="#glyph0-1" x="68.117188" y="92.282227"/>
</g>
<path style="fill:none;stroke-width:1.2;stroke-linecap:butt;stroke-linejoin:miter;stroke:rgb(0%,0%,0%);stroke-opacity:1;stroke-miterlimit:10;" d="M 103.464844 107.359375 L 101.585938 143.488281 "/>
<path style="fill:none;stroke-width:1.2;stroke-linecap:butt;stroke-linejoin:miter;stroke:rgb(0%,0%,0%);stroke-opacity:1;stroke-miterlimit:10;" d="M 111.78125 111.414062 L 110.277344 140.316406 "/>
<path style="fill:none;stroke-width:1.2;stroke-linecap:butt;stroke-linejoin:miter;stroke:rgb(0%,0%,0%);stroke-opacity:1;stroke-miterlimit:10;" d="M 135.695312 90.921875 L 103.464844 107.359375 "/>
<path style="fill:none;stroke-width:1.2;stroke-linecap:butt;stroke-linejoin:miter;stroke:rgb(0%,0%,0%);stroke-opacity:1;stroke-miterlimit:10;" d="M 101.585938 143.488281 L 131.933594 163.179688 "/>
<path style="fill:none;stroke-width:1.2;stroke-linecap:butt;stroke-linejoin:miter;stroke:rgb(0%,0%,0%);stroke-opacity:1;stroke-miterlimit:10;" d="M 131.933594 163.179688 L 164.164062 146.746094 "/>
<path style="fill:none;stroke-width:1.2;stroke-linecap:butt;stroke-linejoin:miter;stroke:rgb(0%,0%,0%);stroke-opacity:1;stroke-miterlimit:10;" d="M 131.289062 153.953125 L 157.074219 140.804688 "/>
<path style="fill:none;stroke-width:1.2;stroke-linecap:butt;stroke-linejoin:miter;stroke:rgb(0%,0%,0%);stroke-opacity:1;stroke-miterlimit:10;" d="M 164.164062 146.746094 L 166.042969 110.613281 "/>
<path style="fill:none;stroke-width:1.2;stroke-linecap:butt;stroke-linejoin:miter;stroke:rgb(0%,0%,0%);stroke-opacity:1;stroke-miterlimit:10;" d="M 164.164062 146.746094 L 194.511719 166.4375 "/>
<path style="fill:none;stroke-width:1.2;stroke-linecap:butt;stroke-linejoin:miter;stroke:rgb(0%,0%,0%);stroke-opacity:1;stroke-miterlimit:10;" d="M 166.042969 110.613281 L 135.695312 90.921875 "/>
<path style="fill:none;stroke-width:1.2;stroke-linecap:butt;stroke-linejoin:miter;stroke:rgb(0%,0%,0%);stroke-opacity:1;stroke-miterlimit:10;" d="M 158.375 115.785156 L 134.097656 100.03125 "/>
<path style="fill:none;stroke-width:1.2;stroke-linecap:butt;stroke-linejoin:miter;stroke:rgb(0%,0%,0%);stroke-opacity:1;stroke-miterlimit:10;" d="M 194.511719 166.4375 L 192.632812 202.566406 "/>
<path style="fill:none;stroke-width:1.2;stroke-linecap:butt;stroke-linejoin:miter;stroke:rgb(0%,0%,0%);stroke-opacity:1;stroke-miterlimit:10;" d="M 202.824219 170.492188 L 201.320312 199.394531 "/>
<path style="fill:none;stroke-width:1.2;stroke-linecap:butt;stroke-linejoin:miter;stroke:rgb(0%,0%,0%);stroke-opacity:1;stroke-miterlimit:10;" d="M 226.742188 150 L 194.511719 166.4375 "/>
<path style="fill:none;stroke-width:1.2;stroke-linecap:butt;stroke-linejoin:miter;stroke:rgb(0%,0%,0%);stroke-opacity:1;stroke-miterlimit:10;" d="M 192.632812 202.566406 L 222.980469 222.257812 "/>
<path style="fill:none;stroke-width:1.2;stroke-linecap:butt;stroke-linejoin:miter;stroke:rgb(0%,0%,0%);stroke-opacity:1;stroke-miterlimit:10;" d="M 222.980469 222.257812 L 255.210938 205.820312 "/>
<path style="fill:none;stroke-width:1.2;stroke-linecap:butt;stroke-linejoin:miter;stroke:rgb(0%,0%,0%);stroke-opacity:1;stroke-miterlimit:10;" d="M 222.335938 213.03125 L 248.121094 199.882812 "/>
<path style="fill:none;stroke-width:1.2;stroke-linecap:butt;stroke-linejoin:miter;stroke:rgb(0%,0%,0%);stroke-opacity:1;stroke-miterlimit:10;" d="M 255.210938 205.820312 L 257.089844 169.691406 "/>
<path style="fill:none;stroke-width:1.2;stroke-linecap:butt;stroke-linejoin:miter;stroke:rgb(0%,0%,0%);stroke-opacity:1;stroke-miterlimit:10;" d="M 257.089844 169.691406 L 226.742188 150 "/>
<path style="fill:none;stroke-width:1.2;stroke-linecap:butt;stroke-linejoin:miter;stroke:rgb(0%,0%,0%);stroke-opacity:1;stroke-miterlimit:10;" d="M 249.421875 174.863281 L 225.144531 159.109375 "/>
<path style="fill:none;stroke-width:1.2;stroke-linecap:butt;stroke-linejoin:miter;stroke:rgb(0%,0%,0%);stroke-opacity:1;stroke-miterlimit:10;" d="M 226.742188 150 L 228.621094 113.871094 "/>
<path style="fill:none;stroke-width:1.2;stroke-linecap:butt;stroke-linejoin:miter;stroke:rgb(0%,0%,0%);stroke-opacity:1;stroke-miterlimit:10;" d="M 228.621094 113.871094 L 229.5625 95.804688 "/>
<path style="fill:none;stroke-width:1.2;stroke-linecap:butt;stroke-linejoin:miter;stroke:rgb(20%,80%,80%);stroke-opacity:1;stroke-miterlimit:10;" d="M 229.5625 95.804688 L 230.5 77.742188 "/>
<path style="fill:none;stroke-width:1.2;stroke-linecap:butt;stroke-linejoin:miter;stroke:rgb(0%,0%,0%);stroke-opacity:1;stroke-miterlimit:10;" d="M 228.621094 113.871094 L 246.683594 114.8125 "/>
<path style="fill:none;stroke-width:1.2;stroke-linecap:butt;stroke-linejoin:miter;stroke:rgb(20%,80%,80%);stroke-opacity:1;stroke-miterlimit:10;" d="M 246.683594 114.8125 L 264.75 115.75 "/>
<path style="fill:none;stroke-width:1.2;stroke-linecap:butt;stroke-linejoin:miter;stroke:rgb(0%,0%,0%);stroke-opacity:1;stroke-miterlimit:10;" d="M 228.621094 113.871094 L 210.554688 112.929688 "/>
<path style="fill:none;stroke-width:1.2;stroke-linecap:butt;stroke-linejoin:miter;stroke:rgb(20%,80%,80%);stroke-opacity:1;stroke-miterlimit:10;" d="M 210.554688 112.929688 L 192.492188 111.992188 "/>
<path style=" stroke:none;fill-rule:nonzero;fill:rgb(100%,100%,100%);fill-opacity:1;" d="M 226.5 68.742188 L 235.5 68.742188 L 235.5 86.742188 L 226.5 86.742188 Z M 226.5 68.742188 "/>
<g style="fill:rgb(20%,80%,80%);fill-opacity:1;">
  <use xlink:href="#glyph0-2" x="226.5" y="82.356445"/>
</g>
<path style=" stroke:none;fill-rule:nonzero;fill:rgb(100%,100%,100%);fill-opacity:1;" d="M 260.75 106.75 L 269.75 106.75 L 269.75 124.75 L 260.75 124.75 Z M 260.75 106.75 "/>
<g style="fill:rgb(20%,80%,80%);fill-opacity:1;">
  <use xlink:href="#glyph0-2" x="260.75" y="120.364258"/>
</g>
<path style=" stroke:none;fill-rule:nonzero;fill:rgb(100%,100%,100%);fill-opacity:1;" d="M 183.492188 102.992188 L 192.492188 102.992188 L 192.492188 120.992188 L 183.492188 120.992188 Z M 183.492188 102.992188 "/>
<g style="fill:rgb(20%,80%,80%);fill-opacity:1;">
  <use xlink:href="#glyph0-2" x="183.492188" y="116.606445"/>
</g>
</g>
</svg>

<svg xmlns="http://www.w3.org/2000/svg" xmlns:xlink="http://www.w3.org/1999/xlink" width="300pt" height="300pt" viewBox="0 0 300 300"><defs><symbol overflow="visible"><path d="M.75 2.656v-13.234h7.5V2.656zm.844-.844h5.812V-9.733H1.594zm0 0"/></symbol><symbol overflow="visible" id="a"><path d="M1.47-10.938h2L8.31-1.78v-9.158H9.75V0h-2L2.906-9.14V0H1.47zm0 0"/></symbol><symbol overflow="visible" id="b"><path d="M1.47-10.938h6.28v1.25H2.953v3.22H7.28v1.25H2.954V0H1.47zm0 0"/></symbol></defs><g><path fill="#fff" d="M0 0h300v300H0z"/><path d="M35.25 212.492l16.113-8.22" stroke-width="1.2" stroke="#000" stroke-miterlimit="10" fill="none"/><path d="M51.363 204.273l16.114-8.218M67.477 196.055l15.175 9.843" stroke-width="1.2" stroke="#00f" stroke-miterlimit="10" fill="none"/><path d="M82.652 205.898l15.176 9.848" stroke-width="1.2" stroke="#000" stroke-miterlimit="10" fill="none"/><path d="M67.477 196.055l.94-18.067" stroke-width="1.2" stroke="#00f" stroke-miterlimit="10" fill="none"/><path d="M68.418 177.988l.94-18.062" stroke-width="1.2" stroke="#000" stroke-miterlimit="10" fill="none"/><path d="M62.477 187.055h11v18h-11zm0 0" fill="#fff"/><use xlink:href="#a" x="62.477" y="200.669" fill="#00f"/><path d="M69.36 159.926l-15.176-9.848" stroke-width="1.2" stroke="#000" stroke-miterlimit="10" fill="none"/><path d="M54.184 150.078l-15.176-9.844" stroke-width="1.2" stroke="#00f" stroke-miterlimit="10" fill="none"/><path d="M70.957 150.816l-12.14-7.88" stroke-width="1.2" stroke="#000" stroke-miterlimit="10" fill="none"/><path d="M58.816 142.938l-12.136-7.875" stroke-width="1.2" stroke="#00f" stroke-miterlimit="10" fill="none"/><path d="M101.586 143.488L69.36 159.926" stroke-width="1.2" stroke="#000" stroke-miterlimit="10" fill="none"/><path d="M39.008 140.234l.94-18.066" stroke-width="1.2" stroke="#00f" stroke-miterlimit="10" fill="none"/><path d="M39.95 122.168l.94-18.063" stroke-width="1.2" stroke="#000" stroke-miterlimit="10" fill="none"/><path d="M34.008 131.234h11v18h-11zm0 0" fill="#fff"/><use xlink:href="#a" x="34.008" y="144.849" fill="#00f"/><path d="M40.89 104.105l16.114-8.218" stroke-width="1.2" stroke="#000" stroke-miterlimit="10" fill="none"/><path d="M57.004 95.887l16.113-8.22" stroke-width="1.2" stroke="#00f" stroke-miterlimit="10" fill="none"/><path d="M47.98 110.043l12.89-6.574" stroke-width="1.2" stroke="#000" stroke-miterlimit="10" fill="none"/><path d="M60.87 103.47l12.892-6.575M73.117 87.668l15.176 9.844" stroke-width="1.2" stroke="#00f" stroke-miterlimit="10" fill="none"/><path d="M88.293 97.512l15.172 9.847" stroke-width="1.2" stroke="#000" stroke-miterlimit="10" fill="none"/><path d="M68.117 78.668h11v18h-11zm0 0" fill="#fff"/><use xlink:href="#a" x="68.117" y="92.282" fill="#00f"/><path d="M103.465 107.36l-1.88 36.128M111.78 111.414l-1.503 28.902M135.695 90.922l-32.23 16.437M101.586 143.488l30.348 19.692M131.934 163.18l32.23-16.434M131.29 153.953l25.784-13.148M164.164 146.746l1.88-36.133M164.164 146.746l30.348 19.69M166.043 110.613l-30.348-19.69M158.375 115.785l-24.277-15.754M194.512 166.438l-1.88 36.128M202.824 170.492l-1.504 28.903M226.742 150l-32.23 16.438M192.633 202.566l30.347 19.692M222.98 222.258l32.23-16.438M222.336 213.03l25.785-13.147M255.21 205.82l1.88-36.13M257.09 169.69L226.742 150M249.422 174.863l-24.277-15.754M226.742 150l1.88-36.13M228.62 113.87l.942-18.065" stroke-width="1.2" stroke="#000" stroke-miterlimit="10" fill="none"/><path d="M229.563 95.805l.937-18.063" stroke-width="1.2" stroke="#3cc" stroke-miterlimit="10" fill="none"/><path d="M228.62 113.87l18.064.942" stroke-width="1.2" stroke="#000" stroke-miterlimit="10" fill="none"/><path d="M246.684 114.813l18.066.937" stroke-width="1.2" stroke="#3cc" stroke-miterlimit="10" fill="none"/><path d="M228.62 113.87l-18.065-.94" stroke-width="1.2" stroke="#000" stroke-miterlimit="10" fill="none"/><path d="M210.555 112.93l-18.063-.938" stroke-width="1.2" stroke="#3cc" stroke-miterlimit="10" fill="none"/><path d="M226.5 68.742h9v18h-9zm0 0" fill="#fff"/><use xlink:href="#b" x="226.5" y="82.356" fill="#3cc"/><path d="M260.75 106.75h9v18h-9zm0 0" fill="#fff"/><use xlink:href="#b" x="260.75" y="120.364" fill="#3cc"/><path d="M183.492 102.992h9v18h-9zm0 0" fill="#fff"/><use xlink:href="#b" x="183.492" y="116.606" fill="#3cc"/></g></svg>
